X:1
T:Pleust à Dieu
T:Pleust or à Dieu
T:Thomas Crecquillon
T:Source : Huitiesme Livre de Chansons à 4 parties---Paris---N.du Chemin---1550. Editor : André Vierendeels (18/12/14).
C:Thomas Crecquillon
%%score [ 1 2 3 4 ]
L:1/8
Q:1/4=85
M:2/2
K:C
V:1 treble nm="Superius" snm="S"
V:2 treble nm="Altus" snm="A"
V:3 treble-8 nm="Tenor" snm="T"
V:4 bass nm="Bassus" snm="B"
V:1
 z4 G4- | G4 c4- | c4 A4- | A4 G4- | G8- | G4 z4 | G4 A2 B2 | c2 c2 B2 B2 | c2 d2 (3:2:2e4 d2 | %9
w: Pleust|_ or|_ à|_ Dieu,|_||pour fi- ner|mes mal- heurs, pour|fi- ner mes _|
w: Ou|_ pour|_ le|_ moins,|_||que voz gran-|des va- leurs, que|voz gran- des _|
 c2 B2 A2 G2- |"^#" G2 F2 G4- | G4 z4 | z4 c4 | c2 B2 A3 B | c2 d2 e2 d2- | d2 c4 B2 | c8 :: e8 | %18
w: _ _ _ _|* mal- heurs,|_|que|ie vous fuis- se'à|mon com- man- de-||ment,|car|
w: _ _ _ _|* va- leurs,|_|ne|fus- sent point en|mon en- ten- de-||ment,||
 d2 e2 B4- | B2 B2 c4 | B2 A3 G G2- | G2 F2 G4- | G8 | z4 z2 c2 | A2 B2 c4 | z2 c2 d3 c | %26
w: voz beaulx yeulx|_ me plai-|sent tel- * *|* le- ment,|_|et|vo- stre'a- mour|me sem- ble|
w: ||||||||
 B2 A2 G2 G2 | z2 d2 e3 d | c2 B2 A2 c2- | c2 BA B2 B2 | c4 A4 | G2 G2 A4 | F4 E4 | z2 e2 e2 e2 | %34
w: tant heu- reu- se,|me sem- ble|tant heu- reu- *|* * * se que|ie lan-|guis, que ie|lan- guis,|ain- si voi-|
w: ||||||||
 c4 d4 | G6 G2 | A2 A2 B4- | B4 z2 B2 | B2 c2 d2 e2 | d2 c4 B2 | c4 G4 | A2 A2 B4- | B4 z2 B2 | %43
w: la com-|ment,- ce|que me plaist,|_ m'est|cho- se dou- lou-|reu- * *|se, ce|que me plaist,|_ m'est|
w: |||||||||
 B2 c2 d2 e2 | d2 c4 B2 | c8 :| %46
w: cho- se dou- lou-|reu- * *|se.|
w: |||
V:2
 z8 | z4 C4- | C4 F4- | F4 D4- | D4 E3 D/C/ | B,4 z4 | z2 C2 C2 D2 | E2 F2 D2 G2 | G2 F2 EDEF | %9
w: |Pleust|_ or|_ à|_ Dieu, _ _|_|pour fi- ner|mes mal- heurs, pour|fi- ner mes _ _ _|
w: |Ou|_ pour|_ le|_ moins, _ _|_|que voz gran-|des va- leurs, que|voz gran- des _ _ _|
 G2 F4 E2 | D4 B,2 E2 | E2 D2 C2 E2- | E2 D2 F4 | E2 D2 F4 | G4 G2 G2 | A4 G4 | G8 :: G8 | %18
w: _ _ mal-|heurs, que ie|vous fuis- se'à mon|_ com- man-||de- ment, com-|men- de-|ment,|car|
w: _ _ va-|leurs, ne fus-|sent point en mon|_ en- ten-||de- ment, en-|ten- de-|ment,||
 G2 G2 G4 | z2 G2 G2 A2 | G2 E2 F2 E2 | D2 C2 E4 | D4 E2 E2 | F2 F2 E2 E2 | F2 G2 E2 E2 | %25
w: voz beaulx yeulx|me plai- sent|tel- * * *|* * ment,|et vo- strea'-|mour, et vo- stre'a-|mour me sem- ble|
w: |||||||
 F2 G2 A3 G | F3 E D2 D2 | E2 F2 G4 | A2 G4 F2 | G6 G2 | A4 F4 | E2 E2 F2 F2 | C8 | z2 E2 E2 E2 | %34
w: tant heu- reu- *|* * se que|ie lan- *||guis, que|ie lan-|guis, que ie lan-|guis,|ain- si voi-|
w: |||||||||
 F4 F4 | E6 E2 | F2 F2 G4- | G4 z2 D2 | G4 G2 G2- | GF F2 G4 | E6 E2 | F2 F2 G4- | G4 z2 D2 | %43
w: la com-|ment, ce|que me plaist,|_ m'est|cho- se dou-|* * lou- reu-|se, ce|que me plaist,|_ m'est|
w: |||||||||
 G4 G2 G2- | GF F2 G4 | E8 :| %46
w: cho- se dou-|* * lou- reu-|se.|
w: |||
V:3
 G8 | c3 B A2 G2 | A6 c2 | d2 c4 BA | B4 c4 | d2 e2 f2 f2 | e3 d c2 B2 | A4 z2 d2 | e2 f2 g3 f | %9
w: Pleust|or _ _ à|Dieu, _|_ _ _ _|Dieu, pour|fi- ner mes mal-|heurs, _ _ _|_ que|ie vous fuis- se'à|
w: Ou|pour _ _ le|moins, _|_ _ _ _|* que|voz gran- des va-|leurs, _ _ _|_ que|voz gran- des va-|
 e2 d2 c2 B2 | A4 G4- | G4 z2 c2 | c2 B2 A3 B | c2 d4 c2- | c2 B2 c2 d2 | e2 f2 d4 | c8 :: c8 | %18
w: mon com- man- *|de- ment,|_ que|ie vous fuis- se'à|mon com- man-||* * de-|ment,|car|
w: leurs ne fus- *|sent point,|_ ne|fus- sent point en|mon en- ten-||* * de|ment,||
 B2 c2 d4 | z2 d2 e2 d2- | d2 c2 d2 B2 | A4 B2 c2- | c2 B2 c4 | z4 z2 c2 | d2 d2 c4 | z2 e2 f3 e | %26
w: voz beaulx yeulx|me plai- sent|_ tel- * *||* le- ment,|et|vo- stre'a- mour|me sem- ble|
w: ||||||||
 d2 c2 B2 B2 | z2 A2 c3 B | A2 d4 c2 | d6 d2 | f2 f2 c4 | z2 c2 c3 B | A4 G2 G2 | %33
w: tant heu- reu- se,|me sem- ble|tant heu- reu-|se que|ie lan- guis,|que ie _|lan- guis, ain-|
w: |||||||
 G2 G2 (3:2:2c4 B2 | AG c4 B2 | c8 | z2 c2 d2 d2 | e2 B2 B3 c | d2 e2 d2 c2 | B2 c2 d4 | c8 | %41
w: si voi- la _|_ _ _ com-|ment|ce que me|plaist, m'est cho- *|* se dou- lou-|reu- * *|se,|
w: ||||||||
 z2 c2 d2 d2 | e2 B2 B3 c | d2 e2 d2 c2 | B2 c2 d4 | c8 :| %46
w: ce que me|plaist, m'est cho- *|* se dou- lou-|reu- * *|se|
w: |||||
V:4
 z8 | C,8 | F,8 | F,4 G,4- | G,4 z4 | G,4 A,2 B,2 | C3 B, A,2 G,2- | G,2 F,2 G,3 F, | %8
w: |Pleust|or|à Dieu,|_|pour fi- ner|mes _ _ mal-|* * heurs, _|
w: |Ou|pour|le moins,|_|que voz gran-|des _ _ va-||
 E,2 D,2 C,4- | C,2 D,2 F,2 G,2 | D,4 z2 C2 | C2 B,2 A,4 | G,4 F,3 E, | C,2 G,2 F,2 F,2 | %14
w: _ que ie|_ vous fuis- *|se à|mon com- man-|de- ment, à|mon com- man- de-|
w: ||leurs, ne|* sent point|en mon en-|ten- de ment, en|
 C,2 G,2 C2 B,2 | A,2 F,2 G,4 | C,8 :: C,8 | G,2 C,2 G,4 | z2 G,2 C2 F,2 | G,2 A,2 F,2 G,2 | %21
w: ment, à mon com-|man- * de-|ment,|car|voz beaulx yeulx|me plai- sent|tel- * * *|
w: mon en- ten- *||ment,|||||
 D,2 F,2 E,2 C,2 | G,4 z2 C2 | A,2 B,2 C4 | z2 G,2 A,3 G, | F,2 E,2 D,2 D,2 | z2 F,2 G,3 F, | %27
w: * * * le-|ment, et|vo- stre'a- mour|me sem- ble|tant heu- reu- se,|me sem- ble|
w: ||||||
 E,2 D,2 C,2 C,2 | F,2 G,2 A,4 | G,6 G,2 | F,4 F,4 | C,2 C,2 F,4 | F,4 C,4 | z2 C,2 C,2 C,2 | %34
w: tant heu- reu- se|que ie lan-|guis, que|ie lan-|guis, que ie|lan- guis,|ain- si voi-|
w: |||||||
 F,4 D,4 | C,4 z2 C2 | F,2 A,2 G,4 | z2 E,2 G,4- | G,2 C,2 G,2 C,2 | G,2 A,2 G,4 | C,4 z2 C2 | %41
w: la com-|ment, ce|que me plaist,|m'est cho-|* se dou- lou-|reu- * *|se, ce|
w: |||||||
 F,2 A,2 G,4 | z2 E,2 G,4- | G,2 C,2 G,2 C,2 | G,2 A,2 G,4 | C,8 :| %46
w: que me plaist,|m'est cho-|* se dou- lou-|reu- * *|se.|
w: |||||

